X: 44
T: No_4_Song_of_the_Duck_Dance_(b).krn
N: Derived from No_4_Song_of_the_Duck_Dance_(b).krn
%%abc-version 2.0
%%abcx-abcm2ps-target-version 5.9.1 (29 Sep 2008)
%%abc-creator hum2abc beta
%%abcx-conversion-date 2019/03/15 08:35:01
%%humdrum-veritas 3488791420
%%humdrum-veritas-data 1583205300
%%linebreak <none>
%%barnumbers 0
L: 1/16
M: 2/4
K: A clef=bass
[K:clef=bass][M:2/4]C3/B,/C2 (B,A,)B,2 | 
A,F,B, z (A,F,)F, z | 
[M:3/4]CCB,B, A,A,B, z (A,F,)F, z | 
[M:2/4]C3/B,/C z (B,A,)B,2 | 
A,3/F,/B, z A,F,F, z | 
[M:3/4]C/C3/ C/C3/ B,3/A,/B,2 A,F,F, z | 
[M:2/4]C3/B,/C z (B,A,)B,2 [I:setbarnb 8]| 
A,3/A,/B, z (A,F,)F, z | 
CC(CB,) (CB,)(B,A,) | 
[M:3/4]B,B,CB, A,2B,2 A,(A,F,) z :|]  



